!!!COA:	Josquin des Prez
!!!CDT:	~1450-1521/08/27
!!!OTL@@FRE: Incessament livr&eacute;
!!!AGN:	Chanson
!!!SCT:	NJE 29.8
!!!SCA:	New Josquin Edition 29.8
!!!voices:	5
**kern	**kern	**kern	**kern	**kern
*staff5	*staff4	*staff3	*staff2	*staff1
*Ivox	*Ivox	*Ivox	*Ivox	*Ivox
*I"Bassus	*I"Quintus	*I"Contratenor	*I"Tenor	*I"Superius
*I'B	*I'Q	*I'Ct	*I'T	*I'S
*clefF4	*clefF4	*clefGv2	*clefGv2	*clefG2
*k[]	*k[]	*k[]	*k[]	*k[]
*M2/1	*M2/1	*M2/1	*M2/1	*M2/1
*met(C|)	*met(C|)	*met(C|)	*met(C|)	*met(C|)
=1-	=1-	=1-	=1-	=1-
!	!	!	!LO:TX:Z=10:t=Canon at the lower fifth	!
1E	0r	0r	1r	0r
1E	.	.	1e	.
=2	=2	=2	=2	=2
1E	0r	0r	1e	1r
[1C	.	.	1e	1e
=3	=3	=3	=3	=3
2C/]	0r	1r	1.c	1e
2AA/	.	.	.	.
1AA	.	1A	.	1e
.	.	.	2A/	.
=4	=4	=4	=4	=4
0r	1r	1A	0A	1.c
.	1A	1A	.	.
.	.	.	.	2A/
=5	=5	=5	=5	=5
1r	1A	1.F	0r	0A
1A	1A	.	.	.
.	.	2D/	.	.
=6	=6	=6	=6	=6
1A	1.F	0D	0r	1r
1A	.	.	.	1a
.	2D\	.	.	.
=7	=7	=7	=7	=7
1.F	0D	0r	1r	1a
.	.	.	1A	1a
2D\	.	.	.	.
=8	=8	=8	=8	=8
0D	0r	1r	1d	1.f
.	.	1D	1d	.
.	.	.	.	2d/
=9	=9	=9	=9	=9
0r	0r	1G	1B	0d
.	.	1G	1G	.
=10	=10	=10	=10	=10
1D	1r	2F/	0A	1r
.	.	2D/	.	.
2D\	1D	[1d	.	1f
2D\	.	.	.	.
=11	=11	=11	=11	=11
1GG	1G	2d\]	0B	1g
.	.	2B\	.	.
1GG	1G	2.B\	.	1d
.	.	4G/	.	.
=12	=12	=12	=12	=12
1C	1E	2G/	0r	1e
.	.	2.c\	.	.
1AA	1C	.	.	1e
.	.	4B\	.	.
.	.	[2A/	.	.
=13	=13	=13	=13	=13
0BB	0D	2A/]	0r	1.d
.	.	4G#i/	.	.
.	.	4F#i/	.	.
.	.	1G#i	.	.
.	.	.	.	4c/
.	.	.	.	4B/
=14	=14	=14	=14	=14
[0AA	0E	[0A	1r	0c
.	.	.	1e	.
=15	=15	=15	=15	=15
0AA]	0r	0A]	1e	1r
.	.	.	1e	1e
=16	=16	=16	=16	=16
0r	0r	1r	1.c	1e
.	.	1A	.	1e
.	.	.	2A/	.
=17	=17	=17	=17	=17
0r	1r	1A	0A	1.c
.	1A	1A	.	.
.	.	.	.	2A/
=18	=18	=18	=18	=18
1r	1A	1.F	0r	0A
1A	1A	.	.	.
.	.	2D/	.	.
=19	=19	=19	=19	=19
1A	1.F	0D	0r	1r
1A	.	.	.	1a
.	2D\	.	.	.
=20	=20	=20	=20	=20
1.F	0D	0r	1r	1a
.	.	.	1A	1a
2D\	.	.	.	.
=21	=21	=21	=21	=21
0D	0r	1r	1d	1.f
.	.	1D	1d	.
.	.	.	.	2d/
=22	=22	=22	=22	=22
0r	0r	1G	1B	0d
.	.	1G	1G	.
=23	=23	=23	=23	=23
1D	1r	2F/	0A	1r
.	.	2D/	.	.
2D\	1D	[1d	.	1f
2D\	.	.	.	.
=24	=24	=24	=24	=24
1GG	1G	2d\]	0B	1g
.	.	4c\	.	.
.	.	4B\	.	.
1GG	1G	2.B\	.	1d
.	.	4G/	.	.
=25	=25	=25	=25	=25
1C	1E	2G/	0r	1e
.	.	2.c\	.	.
1AA	1C	.	.	1e
.	.	4B\	.	.
.	.	[2A/	.	.
=26	=26	=26	=26	=26
0BB	0D	2A/]	0r	1.d
.	.	4G#i/	.	.
.	.	4F#i/	.	.
.	.	1G#i	.	.
.	.	.	.	4c/
.	.	.	.	4B/
=27	=27	=27	=27	=27
0AA	0E	1A	0e	1c
.	.	2r	.	1cc
.	.	2E/	.	.
=28	=28	=28	=28	=28
0r	0r	1G	1d	1b
.	.	1A	1c	[1a
=29	=29	=29	=29	=29
0r	0r	0E	0B	2a/]
.	.	.	.	4g#i/
.	.	.	.	4f#i/
.	.	.	.	1g#i
=30	=30	=30	=30	=30
1r	0A	1r	0r	1a
1AA	.	1e	.	1cc
=31	=31	=31	=31	=31
1E	1G	1e	0r	1b
1F	1F	1A	.	[1a
=32	=32	=32	=32	=32
2.C/	0E	[0e	1r	2a/]
.	.	.	.	4g#i/
4D\	.	.	.	4f#i/
1E	.	.	1B	1g#i
=33	=33	=33	=33	=33
2r	0r	0e]	1c	2a/
2AA/	.	.	.	2cc\
2AA/	.	.	2A/	2cc\
2AA/	.	.	[2e\	2cc\
=34	=34	=34	=34	=34
1E	0r	0r	4e\]	2b\
.	.	.	4d\	.
.	.	.	4c\	1cc
.	.	.	4B\	.
1AA	.	.	1c	.
.	.	.	.	4b\
.	.	.	.	4a/
=35	=35	=35	=35	=35
0E	1r	1r	0B	0g
.	1E	2r	.	.
.	.	2e\	.	.
=36	=36	=36	=36	=36
0r	1F	2c\	0r	0r
.	.	2.d\	.	.
.	2D\	.	.	.
.	.	4e\	.	.
.	[2A\	[2f\	.	.
=37	=37	=37	=37	=37
0r	4A\]	4f\]	0r	0r
.	4G\	4e\	.	.
.	4F\	1e	.	.
.	4E\	.	.	.
.	1F	.	.	.
.	.	2d\	.	.
=38	=38	=38	=38	=38
1r	0E	0e	0e	1r
1C	.	.	.	1cc
=39	=39	=39	=39	=39
1G	0r	1r	1d	1b
1A	.	1e	1c	[1a
=40	=40	=40	=40	=40
0E	0r	1e	0B	2a/]
.	.	.	.	4g#i/
.	.	.	.	4f#i/
.	.	1e	.	1g#i
=41	=41	=41	=41	=41
1r	0A	1c	0r	1a
1AA	.	2r	.	1cc
.	.	[2e\	.	.
=42	=42	=42	=42	=42
1E	1G	2e\]	0r	1b
.	.	2e\	.	.
1F	1F	1A	.	[1a
=43	=43	=43	=43	=43
2.C/	0E	[0e	1r	2a/]
.	.	.	.	4g#i/
4D\	.	.	.	4f#i/
1E	.	.	1B	1g#i
=44	=44	=44	=44	=44
2r	0r	0e]	1c	2a/
2AA/	.	.	.	2cc\
2AA/	.	.	2A/	2cc\
2AA/	.	.	[2e\	2cc\
=45	=45	=45	=45	=45
1E	0r	0r	4e\]	2b\
.	.	.	4d\	.
.	.	.	4c\	1cc
.	.	.	4B\	.
1AA	.	.	1c	.
.	.	.	.	4b\
.	.	.	.	4a/
=46	=46	=46	=46	=46
0E	1r	1r	0B	0g
.	1E	2r	.	.
.	.	2e\	.	.
=47	=47	=47	=47	=47
0r	1F	2c\	0r	0r
.	.	2.d\	.	.
.	2D\	.	.	.
.	.	4e\	.	.
.	[2A\	[2f\	.	.
=48	=48	=48	=48	=48
0r	4A\]	2f\]	0r	0r
.	4G\	.	.	.
.	4F\	1e	.	.
.	4E\	.	.	.
.	1F	.	.	.
.	.	2d\	.	.
=49	=49	=49	=49	=49
1r	0E	0e	1r	1r
1E	.	.	1e	1g
=50	=50	=50	=50	=50
1F	0r	1r	1c	1a
1F	.	1A	1d	[1a
=51	=51	=51	=51	=51
0E	0r	1B	0e	2a/]
.	.	.	.	4g#i/
.	.	.	.	4f#i/
.	.	1B	.	1g#i
=52	=52	=52	=52	=52
1r	1r	0A	1r	0a
1AA	1A	.	1c	.
=53	=53	=53	=53	=53
1BB	1F	1r	1d	0r
1BB	1G	1D	1d	.
=54	=54	=54	=54	=54
0AA	0A	1E	1c	0r
.	.	1E	1c	.
=55	=55	=55	=55	=55
1r	0r	1D	0f	1r
1D	.	1d	.	1a
=56	=56	=56	=56	=56
1E	1G	1B	0e	1g
1C	1G	1c	.	1e
=57	=57	=57	=57	=57
1D	1F	1A	0r	1f
1D	1F	1A	.	1f
=58	=58	=58	=58	=58
0GG	0B-i	2G/	0r	2.g/
.	.	2D/	.	.
.	.	.	.	4f/
.	.	1G	.	1d
=59	=59	=59	=59	=59
0D	0A	0F	1r	1r
.	.	.	1d	1f
=60	=60	=60	=60	=60
1r	0r	1r	1e	1g
1C	.	1c	1e	1g
=61	=61	=61	=61	=61
1F	0r	1.c	1A	2a/
.	.	.	.	2.cc\
1F	.	.	1A	.
.	.	.	.	4b\
.	.	2d\	.	2a/
=62	=62	=62	=62	=62
2E\	1r	2e\	2c\	2g/
2D\	.	2f\	2d\	2f/
1E	1G	1e	1B	3.g/V
.	.	.	.	6a/
.	.	.	.	3b\Z
=63	=63	=63	=63	=63
2AA/	1A	2c\	[0A	2cc\
2D\	.	2A/	.	2f/
2C/	1A	2c\	.	2e/
[2F\	.	2c\	.	[2a/
=64	=64	=64	=64	=64
4F\]	1D	1.F	0A]	4a/]
4E\	.	.	.	4g/
1D	.	.	.	1f
.	1D	.	.	.
4C/	.	2G/	.	4e/
4BB/	.	.	.	4d/
=65	=65	=65	=65	=65
2AA/	2F\	2A/	0r	2c/
2GG/	2G\	2B-i\	.	1d
1AA	1E	1A	.	.
.	.	.	.	2c#i/
=66	=66	=66	=66	=66
[0Dl	[0Dl	1F	1A	[0dl
.	.	1D	1A	.
=67	=67	=67	=67	=67
0D_	0D_	1.F	[0dl	0d_
.	.	2D/	.	.
=68	=68	=68	=68	=68
0D]	0D]	0Dl	0d]	0d]
==	==	==	==	==
*-	*-	*-	*-	*-
!!!RDF**kern: l=long note in original notation
!!!RDF**kern: i=editorial accidental
!!!ENC:	Will Watson 13/11/2011
!!!END:	2011/11/13/
!!!EED:	Jesse Rodin
!!!EEV:	2011/12/06/
!!attribution-level@Jos: 3 (tricky)
!!!ONB:	Translated from MusicXML and edited on 2011/12/06/ by Craig Sapp
!!muse2ps: C^@{COA}?\n@{SCT}^I150v95,95,95,95,95,130c95i2I150Q16
